modules/coreui-icons-brand/icons/kentico.svg

<svg xmlns="http://www.w3.org/2000/svg" width="32" height="32" viewBox="0 0 32 32"><path d="M0 0v33.333h33.333V0zm19.333 11.734l4-4s2.932 1.734 1.198 3.464L21.734 14c-1.599 1.469-3.87-.802-2.401-2.266zm-1.067-4.401v4c0 2-3.333 2-3.333 0V5.734s3.333-.802 3.333 1.599zm-7.068 1.599L14 11.734c1.469 1.464-.802 3.734-2.266 2.266l-4-4s1.734-2.802 3.464-1.068zm-3.865 6.136h4c2 0 2 3.333 0 3.333H5.734c0-.135-.802-3.333 1.599-3.333zM14 21.599l-4 4s-2.932-1.734-1.198-3.464l2.797-2.802c1.599-1.469 3.87.802 2.401 2.266zm4.266 6s-3.333.802-3.333-1.599v-4c0-2 3.333-2 3.333 0zm-1.599-8.531c-1.333 0-2.401-1.068-2.401-2.401s1.068-2.401 2.401-2.401c1.333 0 2.401 1.068 2.401 2.401S18 19.068 16.667 19.068zm5.468 5.333l-2.802-2.802c-1.469-1.464.802-3.734 2.266-2.266l4 4s-1.734 2.802-3.464 1.068zM26 18.266h-4c-2 0-2-3.333 0-3.333h5.599c0 .135.802 3.333-1.599 3.333z"/></svg>

<svg version="1.1" xmlns="http://www.w3.org/2000/svg" width="32" height="32" viewBox="0 0 32 32">
<title>kentico</title>
<path d="M0 0v33.333h33.333v-33.333zM19.333 11.734l4-4c0 0 2.932 1.734 1.198 3.464l-2.797 2.802c-1.599 1.469-3.87-0.802-2.401-2.266zM18.266 7.333v4c0 2-3.333 2-3.333 0v-5.599c0 0 3.333-0.802 3.333 1.599zM11.198 8.932l2.802 2.802c1.469 1.464-0.802 3.734-2.266 2.266l-4-4c0 0 1.734-2.802 3.464-1.068zM7.333 15.068h4c2 0 2 3.333 0 3.333h-5.599c0-0.135-0.802-3.333 1.599-3.333zM14 21.599l-4 4c0 0-2.932-1.734-1.198-3.464l2.797-2.802c1.599-1.469 3.87 0.802 2.401 2.266zM18.266 27.599c0 0-3.333 0.802-3.333-1.599v-4c0-2 3.333-2 3.333 0zM16.667 19.068c-1.333 0-2.401-1.068-2.401-2.401s1.068-2.401 2.401-2.401c1.333 0 2.401 1.068 2.401 2.401s-1.068 2.401-2.401 2.401zM22.135 24.401l-2.802-2.802c-1.469-1.464 0.802-3.734 2.266-2.266l4 4c0 0-1.734 2.802-3.464 1.068zM26 18.266h-4c-2 0-2-3.333 0-3.333h5.599c0 0.135 0.802 3.333-1.599 3.333z"></path>
</svg>
